web/public/images/3p-logos/react.svg

<svg width="54" height="48" viewBox="0 0 54 48" fill="none" xmlns="http://www.w3.org/2000/svg">
<path d="M44.3123 15.5418C43.7532 15.3494 43.1739 15.1673 42.5774 14.9951C42.6754 14.595 42.7654 14.2 42.8454 13.8118C44.1587 7.43682 43.3 2.3011 40.3679 0.610209C37.5563 -1.01114 32.9582 0.679376 28.3143 4.7208C27.8677 5.10942 27.4199 5.52087 26.9723 5.95208C26.6741 5.66678 26.3763 5.39107 26.0793 5.12736C21.2124 0.806006 16.334 -1.01507 13.4048 0.680719C10.5959 2.30676 9.76405 7.13483 10.9462 13.1764C11.0604 13.76 11.1938 14.3559 11.3447 14.9618C10.6543 15.1578 9.98776 15.3667 9.35 15.589C3.64407 17.5784 0 20.6961 0 23.9301C0 27.2702 3.91191 30.6203 9.85509 32.6517C10.3241 32.812 10.8108 32.9635 11.3123 33.1074C11.1495 33.7627 11.0079 34.4049 10.889 35.0313C9.76184 40.968 10.6421 45.682 13.4435 47.2978C16.3371 48.9664 21.1934 47.2513 25.9221 43.1177C26.2959 42.791 26.671 42.4445 27.0468 42.0813C27.5338 42.5503 28.0201 42.9942 28.5038 43.4105C33.0841 47.3521 37.608 48.9437 40.4068 47.3234C43.2975 45.65 44.237 40.586 43.0173 34.4249C42.9242 33.9543 42.8158 33.4736 42.694 32.9844C43.0351 32.8835 43.3699 32.7794 43.6963 32.6712C49.8748 30.6241 53.8947 27.3148 53.8947 23.9301C53.8947 20.6844 50.1332 17.5456 44.3123 15.5418ZM42.9722 30.4858C42.6775 30.5834 42.3751 30.6777 42.067 30.7691C41.3849 28.6098 40.4644 26.3136 39.3378 23.9413C40.4129 21.6255 41.2978 19.3588 41.9608 17.2134C42.5121 17.373 43.0472 17.5412 43.5629 17.7188C48.5502 19.4357 51.5924 21.9741 51.5924 23.9301C51.5924 26.0136 48.3069 28.7182 42.9722 30.4858ZM40.7587 34.872C41.298 37.5964 41.375 40.0595 41.0178 41.9851C40.6968 43.7153 40.0513 44.8689 39.2531 45.3309C37.5547 46.314 33.9225 45.0361 30.0053 41.6652C29.5562 41.2788 29.1039 40.8662 28.6502 40.4295C30.1688 38.7687 31.6865 36.8378 33.1678 34.6935C35.7732 34.4623 38.2347 34.0843 40.467 33.5683C40.5769 34.0118 40.6746 34.4467 40.7587 34.872ZM18.3739 45.161C16.7145 45.747 15.3928 45.7638 14.5939 45.3032C12.8939 44.3226 12.1872 40.5377 13.1512 35.4606C13.2616 34.8792 13.3931 34.2819 13.5445 33.6714C15.7523 34.1596 18.1958 34.5109 20.8074 34.7226C22.2987 36.821 23.8603 38.7497 25.4339 40.4385C25.0901 40.7704 24.7477 41.0864 24.4071 41.3841C22.3161 43.2119 20.2206 44.5087 18.3739 45.161ZM10.5997 30.473C7.97175 29.5748 5.80148 28.4074 4.31387 27.1336C2.97715 25.9888 2.30227 24.8523 2.30227 23.9301C2.30227 21.9676 5.2281 19.4645 10.1079 17.7631C10.7 17.5567 11.3198 17.3621 11.963 17.1794C12.6374 19.3731 13.5221 21.6668 14.5897 23.9861C13.5083 26.3399 12.611 28.6701 11.93 30.8896C11.4714 30.7578 11.0272 30.6191 10.5997 30.473ZM13.2057 12.7343C12.1928 7.55798 12.8655 3.65317 14.5582 2.67332C16.3613 1.62949 20.3483 3.11777 24.5505 6.84905C24.8191 7.08753 25.0888 7.33715 25.3592 7.5954C23.7933 9.27679 22.246 11.191 20.768 13.277C18.2333 13.5119 15.807 13.8893 13.5762 14.3947C13.4359 13.8305 13.3117 13.2762 13.2057 12.7343ZM36.4535 18.4747C35.9202 17.5536 35.3727 16.6542 34.8146 15.7794C36.5341 15.9968 38.1817 16.2854 39.7289 16.6385C39.2644 18.1272 38.6854 19.6837 38.0039 21.2793C37.515 20.3512 36.998 19.4154 36.4535 18.4747ZM26.9731 9.24082C28.035 10.3913 29.0985 11.6759 30.1446 13.0696C29.0905 13.0198 28.0233 12.9939 26.9474 12.9939C25.8816 12.9939 24.8223 13.0192 23.7747 13.0681C24.8218 11.6874 25.8945 10.4046 26.9731 9.24082ZM17.432 18.4907C16.8993 19.4144 16.3918 20.3451 15.9106 21.2776C15.2401 19.6875 14.6665 18.1239 14.198 16.6141C15.7357 16.27 17.3755 15.9887 19.0841 15.7754C18.5181 16.6583 17.9661 17.5643 17.432 18.4905V18.4907ZM19.1333 32.249C17.368 32.0521 15.7036 31.7852 14.1663 31.4506C14.6423 29.9139 15.2285 28.3169 15.9132 26.6926C16.3956 27.6243 16.9051 28.5555 17.4411 29.4812H17.4412C17.9871 30.4243 18.5528 31.3481 19.1333 32.249ZM27.0368 38.7817C25.9456 37.6043 24.8571 36.302 23.7941 34.9011C24.826 34.9416 25.8781 34.9623 26.9474 34.9623C28.0459 34.9623 29.1318 34.9375 30.2007 34.8899C29.1512 36.3161 28.0916 37.6205 27.0368 38.7817ZM38.0259 26.6098C38.7462 28.2516 39.3535 29.8403 39.8356 31.3508C38.273 31.7073 36.5858 31.9944 34.8082 32.2078C35.3677 31.3212 35.92 30.4064 36.4627 29.4654C37.0117 28.5133 37.533 27.5599 38.0259 26.6098ZM34.4683 28.3152C33.6259 29.7759 32.7609 31.1704 31.8829 32.4867C30.2836 32.601 28.6314 32.6599 26.9474 32.6599C25.2702 32.6599 23.6388 32.6078 22.0678 32.5058C21.1543 31.1723 20.2706 29.7737 19.4335 28.3277H19.4337C18.5988 26.8857 17.8304 25.4314 17.1341 23.9854C17.8302 22.5359 18.5966 21.0801 19.4267 19.6406L19.4265 19.6409C20.2588 18.1976 21.1348 16.8058 22.0398 15.4806C23.6426 15.3595 25.2862 15.2962 26.9473 15.2962H26.9474C28.6159 15.2962 30.2616 15.3599 31.864 15.4822C32.7552 16.7977 33.6252 18.1849 34.4608 19.6284C35.3058 21.0881 36.0821 22.5343 36.7841 23.9527C36.0842 25.3954 35.3097 26.8561 34.4683 28.3152ZM39.2178 2.60483C41.0226 3.64559 41.7244 7.843 40.5905 13.3471C40.5182 13.6983 40.4367 14.056 40.3483 14.4186C38.1123 13.9026 35.6843 13.5187 33.1422 13.2802C31.6613 11.1714 30.1266 9.25415 28.5863 7.59434C29.0004 7.19593 29.414 6.81604 29.8258 6.45755C33.8047 2.99488 37.5235 1.62776 39.2178 2.60483ZM26.9474 19.1175C29.6053 19.1175 31.76 21.2721 31.76 23.9301C31.76 26.588 29.6053 28.7427 26.9474 28.7427C24.2895 28.7427 22.1348 26.588 22.1348 23.9301C22.1348 21.2721 24.2895 19.1175 26.9474 19.1175Z" fill="#00D8FF"/>
</svg>

<svg fill="none" height="48" width="54" xmlns="http://www.w3.org/2000/svg"><path d="M44.312 15.542a36.154 36.154 0 0 0-1.735-.547c.098-.4.188-.795.268-1.183C44.16 7.437 43.3 2.302 40.368.61c-2.812-1.621-7.41.07-12.054 4.11-.446.39-.894.8-1.342 1.232a32.734 32.734 0 0 0-.893-.825C21.212.806 16.334-1.015 13.405.681c-2.81 1.626-3.64 6.454-2.459 12.495.114.584.248 1.18.399 1.786-.69.196-1.357.405-1.995.627C3.644 17.579 0 20.696 0 23.93c0 3.34 3.912 6.69 9.855 8.722.47.16.956.312 1.457.455a35.28 35.28 0 0 0-.423 1.924c-1.127 5.937-.247 10.651 2.555 12.267 2.893 1.668 7.75-.047 12.478-4.18.374-.327.749-.673 1.125-1.037.487.47.973.913 1.457 1.33 4.58 3.941 9.104 5.533 11.903 3.912 2.89-1.673 3.83-6.737 2.61-12.898a30.36 30.36 0 0 0-.323-1.44c.341-.101.676-.206 1.002-.314 6.179-2.047 10.199-5.356 10.199-8.74 0-3.247-3.762-6.385-9.583-8.39zm-1.34 14.944c-.295.097-.597.192-.905.283-.682-2.16-1.603-4.455-2.73-6.828 1.076-2.315 1.96-4.582 2.624-6.728.551.16 1.086.328 1.602.506 4.987 1.717 8.03 4.255 8.03 6.211 0 2.084-3.286 4.788-8.62 6.556zm-2.213 4.386c.539 2.724.616 5.188.259 7.113-.321 1.73-.967 2.884-1.765 3.346-1.698.983-5.33-.295-9.248-3.666-.449-.386-.901-.799-1.355-1.236 1.519-1.66 3.037-3.591 4.518-5.736 2.605-.23 5.067-.609 7.299-1.125.11.444.208.879.292 1.304zM18.374 45.161c-1.66.586-2.981.603-3.78.142-1.7-.98-2.407-4.765-1.443-9.842.11-.582.242-1.18.394-1.79 2.207.489 4.65.84 7.262 1.052 1.492 2.098 3.053 4.027 4.627 5.716a28.25 28.25 0 0 1-1.027.945c-2.09 1.828-4.186 3.125-6.033 3.777zM10.6 30.473c-2.628-.898-4.799-2.066-6.286-3.34-1.337-1.144-2.012-2.28-2.012-3.203 0-1.962 2.926-4.466 7.806-6.167a33.223 33.223 0 0 1 1.855-.584 55.192 55.192 0 0 0 2.627 6.807c-1.082 2.354-1.979 4.684-2.66 6.904-.459-.132-.903-.27-1.33-.417zm2.606-17.739c-1.013-5.176-.34-9.08 1.352-10.06 1.803-1.045 5.79.444 9.993 4.175.268.239.538.488.808.746a55.144 55.144 0 0 0-4.591 5.682 56.259 56.259 0 0 0-7.192 1.118 33.708 33.708 0 0 1-.37-1.66zm23.248 5.74a73.314 73.314 0 0 0-1.64-2.695c1.72.218 3.368.506 4.915.86a49.172 49.172 0 0 1-1.725 4.64 80.426 80.426 0 0 0-1.55-2.804zm-9.48-9.233a49.24 49.24 0 0 1 3.17 3.829 67.784 67.784 0 0 0-6.37-.002 50.797 50.797 0 0 1 3.2-3.827zm-9.542 9.25a68.007 68.007 0 0 0-1.521 2.787 50.81 50.81 0 0 1-1.713-4.664 51.912 51.912 0 0 1 4.886-.839 67.675 67.675 0 0 0-1.652 2.715zm1.701 13.758a48.995 48.995 0 0 1-4.967-.798 51.678 51.678 0 0 1 1.747-4.758 68.082 68.082 0 0 0 3.22 5.556zm7.904 6.533a51.684 51.684 0 0 1-3.243-3.88c1.032.04 2.084.06 3.153.06 1.099 0 2.185-.025 3.254-.072a48.946 48.946 0 0 1-3.164 3.892zM38.026 26.61a48.839 48.839 0 0 1 1.81 4.74c-1.563.357-3.25.644-5.028.858a80.483 80.483 0 0 0 1.655-2.743 73.224 73.224 0 0 0 1.563-2.855zm-3.558 1.705a75.507 75.507 0 0 1-2.585 4.172c-1.6.114-3.252.173-4.936.173-1.677 0-3.308-.052-4.88-.154a65.27 65.27 0 0 1-2.633-4.178 64.734 64.734 0 0 1-2.3-4.343 65.325 65.325 0 0 1 2.293-4.344 64.704 64.704 0 0 1 2.613-4.16 65.27 65.27 0 0 1 4.907-.185c1.669 0 3.315.064 4.917.186a69.348 69.348 0 0 1 2.597 4.146 75.477 75.477 0 0 1 2.323 4.325 69.338 69.338 0 0 1-2.316 4.362zm4.75-25.71c1.805 1.04 2.506 5.238 1.373 10.742-.073.351-.154.709-.243 1.072a55.142 55.142 0 0 0-7.206-1.139c-1.48-2.109-3.015-4.026-4.556-5.686.414-.398.828-.778 1.24-1.136 3.979-3.463 7.698-4.83 9.392-3.853zm-12.27 16.512a4.813 4.813 0 1 1 0 9.626 4.813 4.813 0 0 1 0-9.626z" fill="#00d8ff"/></svg>
